packages/core/src/svgs/tokens/branded/COV.svg

<svg width="24" height="24" viewBox="0 0 24 24" fill="none" xmlns="http://www.w3.org/2000/svg">
<path d="M13.7038 5.74329C10.0651 5.74329 7.45166 8.34419 7.45166 11.9955C7.45166 15.6718 10.0526 18.2664 13.7038 18.2476C17.33 18.2476 19.9685 15.6217 19.9559 11.9955C19.9559 8.30667 17.2801 5.74329 13.7038 5.74329ZM13.7038 17.6224C10.5778 17.6224 8.06437 15.1215 8.07687 11.9955C8.07687 10.5031 8.66972 9.07186 9.72497 8.0166C10.7803 6.96135 12.2115 6.3685 13.7038 6.3685C15.1962 6.3685 16.6274 6.96135 17.6826 8.0166C18.7379 9.07186 19.3308 10.5031 19.3308 11.9955C19.3308 15.1591 16.9237 17.6224 13.7038 17.6224Z" fill="white"/>
<path d="M5.74462 11.4328C6.00095 11.464 6.11974 11.1826 6.15725 10.9263C6.38233 8.99443 7.36393 7.23758 8.88321 6.0309C9.89373 5.22664 11.0959 4.6988 12.372 4.49912C12.6408 4.45535 12.9847 4.26779 12.9409 3.99895C12.9095 3.78637 12.7221 3.6926 12.4595 3.73636C11.3553 3.91042 10.2966 4.30177 9.34468 4.88772C8.39276 5.47368 7.56652 6.24262 6.91377 7.15005C6.09302 8.29404 5.57666 9.62795 5.41324 11.0264C5.38199 11.2515 5.48203 11.4015 5.74462 11.4391V11.4328ZM19.3744 5.72454C18.0839 4.59619 16.4816 3.88553 14.779 3.68634C14.5039 3.68634 14.3288 3.74887 14.3163 3.99895C14.2976 4.25529 14.5726 4.34282 14.8291 4.36782C16.6421 4.57415 18.3303 5.44321 19.5432 6.81243C19.7245 7.01249 19.9746 7.18755 20.1808 6.99999C20.381 6.83119 20.3059 6.66237 20.1184 6.46231C19.8933 6.19972 19.6432 5.95589 19.3744 5.72454ZM8.20797 18.2665C9.39248 19.3106 10.8498 19.9958 12.4094 20.242C12.5908 20.2921 12.8783 20.1983 12.9158 19.9357C12.9596 19.6731 12.6783 19.5231 12.3156 19.4605C10.7786 19.2035 9.35983 18.4742 8.25623 17.3739C7.15262 16.2737 6.41901 14.8572 6.15725 13.321C6.09474 13.0084 5.89466 12.702 5.63833 12.8208C5.4445 12.9083 5.42576 13.1083 5.45701 13.321C5.76847 15.2384 6.74184 16.9859 8.20797 18.2602V18.2665ZM19.3493 17.3036C18.1422 18.5765 16.5273 19.3861 14.7853 19.5918C14.5102 19.6169 14.2101 19.7482 14.2413 20.0171C14.2725 20.2797 14.5164 20.3421 14.7853 20.3046C16.7598 20.0732 18.5901 19.1548 19.9557 17.7099C20.1371 17.5162 20.2621 17.2536 20.0684 17.066C19.8682 16.8972 19.5306 17.1035 19.343 17.3036H19.3493Z" fill="white"/>
<path d="M19.2118 19.5732C17.708 20.692 15.8961 21.3206 14.0225 21.3738C11.8684 21.4552 9.75518 20.7707 8.05795 19.4419C7.80786 19.2231 7.51401 19.1167 7.35147 19.3981C7.28894 19.5919 7.35147 19.6982 7.51403 19.8295C9.39492 21.3169 11.7451 22.0841 14.1413 21.9927C16.2108 21.9302 18.2177 21.2237 19.8808 19.9795C20.0496 19.8545 20.0809 19.667 19.9183 19.4543C19.7558 19.248 19.4182 19.4168 19.2118 19.5795V19.5732ZM4.32541 11.9955C4.32986 10.0296 4.97764 8.11927 6.16981 6.55612C6.33237 6.34355 6.49491 6.01844 6.28234 5.86214C6.05726 5.71834 5.86345 5.79961 5.7384 5.96843C4.42042 7.69931 3.70464 9.8137 3.7002 11.9893C3.7002 14.2401 4.48171 16.4596 5.88846 18.2102C6.01975 18.3727 6.24482 18.4791 6.45114 18.3103C6.66373 18.1476 6.47616 17.81 6.30735 17.6038C5.02999 16.013 4.33111 14.0356 4.32541 11.9955ZM7.87665 4.69298C9.60355 3.26588 11.7966 2.5267 14.0351 2.61725C15.9731 2.67978 17.9239 3.27373 19.4557 4.48041C19.6682 4.64921 20.0309 4.90556 20.206 4.69298C20.3685 4.48666 20.2684 4.31785 20.0809 4.1678C18.2551 2.73787 15.9962 1.97343 13.6774 2.00071C11.3584 2.02799 9.11809 2.84536 7.32645 4.31785C7.22017 4.40538 7.04511 4.61171 7.22017 4.81803C7.39523 5.0306 7.67033 4.86804 7.88289 4.69298H7.87665ZM11.5154 11.9955C11.2841 11.9893 11.2027 12.1769 11.2027 12.4332V14.0588C11.2027 14.3276 11.3279 14.4964 11.5279 14.4964C11.7342 14.4964 11.828 14.3214 11.828 14.0588V12.4332C11.828 12.1831 11.7467 12.0018 11.5154 11.9955ZM13.391 10.745C13.1409 10.745 13.0785 10.9701 13.0785 11.2327V14.0213C13.0785 14.2839 13.1097 14.4964 13.391 14.4964C13.6724 14.4964 13.7036 14.2776 13.7036 14.0213V11.2327C13.7036 10.9764 13.6412 10.745 13.391 10.745ZM15.2605 8.86943C14.9979 8.86943 14.9541 9.10076 14.9541 9.35708V14.0087C14.9541 14.2713 15.0228 14.4964 15.2605 14.4964C15.4917 14.4964 15.5731 14.2651 15.5731 14.0087L15.5793 9.35708C15.5793 9.10076 15.5168 8.86943 15.2605 8.86943Z" fill="white"/>
</svg>

<svg xmlns="http://www.w3.org/2000/svg" width="24" height="24" fill="none" viewBox="0 0 24 24">
    <path fill="#fff" d="M13.704 5.743c-3.639 0-6.252 2.601-6.252 6.252 0 3.677 2.6 6.271 6.252 6.253 3.626 0 6.264-2.626 6.252-6.253 0-3.688-2.676-6.252-6.252-6.252m0 11.88a5.596 5.596 0 0 1-5.627-5.628 5.627 5.627 0 1 1 11.254 0c0 3.164-2.407 5.627-5.627 5.627"/>
    <path fill="#fff" d="M5.745 11.433c.256.031.375-.25.412-.507a7.33 7.33 0 0 1 2.726-4.895 7.45 7.45 0 0 1 3.489-1.532c.269-.044.613-.231.569-.5-.032-.213-.219-.306-.482-.263A8.45 8.45 0 0 0 6.915 7.15a8.3 8.3 0 0 0-1.5 3.876c-.032.226.068.376.33.413zm13.63-5.708a8.5 8.5 0 0 0-4.596-2.039c-.275 0-.45.063-.463.313-.018.256.257.344.513.369a7.43 7.43 0 0 1 4.714 2.444c.181.2.432.376.638.188.2-.169.125-.338-.063-.538a7 7 0 0 0-.744-.737M8.207 18.267a8.3 8.3 0 0 0 4.201 1.975c.182.05.47-.044.507-.306.044-.263-.238-.413-.6-.476a7.5 7.5 0 0 1-6.159-6.139c-.062-.313-.262-.619-.519-.5-.194.087-.212.287-.181.5a8.3 8.3 0 0 0 2.751 4.94zm11.141-.963a7.5 7.5 0 0 1-4.564 2.288c-.275.025-.575.156-.544.425.032.263.275.325.544.288a8.47 8.47 0 0 0 5.17-2.595c.182-.194.307-.456.113-.644-.2-.169-.537.038-.725.238z"/>
    <path fill="#fff" d="M19.212 19.573a9.13 9.13 0 0 1-5.19 1.8 9.12 9.12 0 0 1-5.964-1.931c-.25-.219-.544-.325-.707-.044-.062.194 0 .3.163.431a10.07 10.07 0 0 0 6.627 2.164 10.1 10.1 0 0 0 5.74-2.013c.169-.125.2-.313.037-.526-.162-.206-.5-.037-.706.125zM4.325 11.995A9 9 0 0 1 6.17 6.557c.162-.212.325-.538.112-.694-.225-.144-.419-.062-.544.106A9.97 9.97 0 0 0 3.7 11.99c0 2.251.782 4.47 2.188 6.221.132.163.357.27.563.1.213-.162.025-.5-.144-.706a9 9 0 0 1-1.982-5.608m3.552-7.302a9.1 9.1 0 0 1 6.158-2.076c1.938.063 3.889.657 5.42 1.863.213.17.576.426.751.213.163-.206.062-.375-.125-.525a10.19 10.19 0 0 0-12.755.15c-.106.087-.28.294-.106.5.175.213.45.05.663-.125zm3.638 7.303c-.23-.007-.312.18-.312.437v1.626c0 .269.125.437.325.437.206 0 .3-.175.3-.437v-1.626c0-.25-.081-.431-.313-.437m1.876-1.251c-.25 0-.312.225-.312.488v2.788c0 .263.03.475.312.475.281 0 .313-.218.313-.475v-2.788c0-.257-.063-.488-.313-.488m1.87-1.876c-.263 0-.307.232-.307.488v4.652c0 .262.069.487.306.487.232 0 .313-.23.313-.487l.006-4.652c0-.256-.062-.488-.319-.488"/>
</svg>
